public/img/payments/mastercard.svg

<svg width="110" height="69" viewBox="0 0 110 69" fill="none" xmlns="http://www.w3.org/2000/svg">
<g id="Group">
<path id="rect19" d="M69.6155 8.10858H40.2072V60.892H69.6155V8.10858Z" fill="#B4E8CF"/>
<path id="XMLID_330_" d="M42.1643 34.5C42.1643 23.776 47.2107 14.258 54.9543 8.10832C49.2554 3.63184 42.0664 0.926392 34.2249 0.926392C15.6489 0.926392 0.618408 15.9422 0.618408 34.5C0.618408 53.0578 15.6489 68.0736 34.2249 68.0736C42.0664 68.0736 49.2554 65.3682 54.9543 60.8917C47.1998 54.8289 42.1643 45.224 42.1643 34.5Z" fill="#EBFFF3"/>
<path id="path22" d="M109.291 34.5C109.291 53.0578 94.2604 68.0736 75.6844 68.0736C67.8429 68.0736 60.6539 65.3682 54.955 60.8917C62.7965 54.7311 67.745 45.224 67.745 34.5C67.745 23.776 62.6986 14.258 54.955 8.10832C60.643 3.63184 67.832 0.926392 75.6735 0.926392C94.2604 0.926392 109.291 16.0399 109.291 34.5Z" fill="#A3DEC1"/>
</g>
</svg>

<svg width="110" height="69" fill="none" xmlns="http://www.w3.org/2000/svg"><path d="M69.615 8.109H40.207v52.783h29.408V8.109z" fill="#B4E8CF"/><path d="M42.164 34.5c0-10.724 5.047-20.242 12.79-26.392C49.255 3.632 42.066.926 34.224.926 15.65.926.619 15.942.619 34.5s15.03 33.574 33.607 33.574c7.841 0 15.03-2.706 20.73-7.182-7.755-6.063-12.79-15.668-12.79-26.392z" fill="#EBFFF3"/><path d="M109.291 34.5c0 18.558-15.03 33.574-33.607 33.574-7.841 0-15.03-2.706-20.729-7.182 7.842-6.16 12.79-15.668 12.79-26.392s-5.046-20.242-12.79-26.392C60.643 3.632 67.832.926 75.674.926 94.26.926 109.29 16.04 109.29 34.5z" fill="#A3DEC1"/></svg>
